svgs/sharp-regular/diagram-project.svg

<svg xmlns="http://www.w3.org/2000/svg" viewBox="0 0 576 512"><!--! Font Awesome Pro 6.6.0 by @fontawesome - https://fontawesome.com License - https://fontawesome.com/license (Commercial License) Copyright 2024 Fonticons, Inc. --><path d="M144 80l0 96-96 0 0-96 96 0zM48 32L0 32 0 80l0 96 0 48 48 0 96 0 10 0 70 93.3 0 18.7 0 96 0 48 48 0 96 0 48 0 0-48 0-96 0-48-48 0-96 0-10 0-70-93.3 0-18.7 0-24 192 0 0 24 0 48 48 0 96 0 48 0 0-48 0-96 0-48-48 0-96 0-48 0 0 48 0 24-192 0 0-24 0-48-48 0L48 32zM368 336l0 96-96 0 0-96 96 0zM432 80l96 0 0 96-96 0 0-96z"/></svg>

<svg xmlns="http://www.w3.org/2000/svg" viewBox="0 0 576 512"><!--! Font Awesome Pro 6.4.0 by @fontawesome - https://fontawesome.com License - https://fontawesome.com/license (Commercial License) Copyright 2023 Fonticons, Inc. --><path d="M144 80v96H48V80h96zM48 32H0V80v96 48H48h96 10l70 93.3V336v96 48h48 96 48V432 336 288H368 272 262l-70-93.3V176 152H384v24 48h48 96 48V176 80 32H528 432 384V80v24H192V80 32H144 48zM368 336v96H272V336h96zM432 80h96v96H432V80z"/></svg>
